dist/assets/images/sprite-icons/envelope.svg

<svg width="56" height="56" viewBox="0 0 56 56" fill="none" xmlns="http://www.w3.org/2000/svg">
<path d="M44.7952 39.1071C44.7952 39.4487 44.4938 39.75 44.1523 39.75H14.5809C14.2393 39.75 13.938 39.4487 13.938 39.1071V23.6786C14.3599 24.1607 14.8219 24.6027 15.3242 25.0045C18.1969 27.2143 21.0898 29.4643 23.8822 31.7946C25.3889 33.0603 27.2572 34.6071 29.3465 34.6071H29.3666H29.3867C31.476 34.6071 33.3443 33.0603 34.851 31.7946C37.6434 29.4643 40.5362 27.2143 43.409 25.0045C43.9112 24.6027 44.3733 24.1607 44.7952 23.6786V39.1071ZM44.7952 17.9933C44.7952 19.7009 43.1478 21.9308 41.842 22.9553C39.1501 25.0647 36.4581 27.1942 33.7862 29.3237C32.7215 30.1875 30.7929 32.0357 29.3867 32.0357H29.3666H29.3465C27.9402 32.0357 26.0117 30.1875 24.9469 29.3237C22.2751 27.1942 19.5831 25.0647 16.8911 22.9553C15.0831 21.529 13.938 19.5402 13.938 17.25C13.938 16.9085 14.2393 16.6071 14.5809 16.6071H44.1523C44.9157 16.6071 44.7952 17.4911 44.7952 17.9933ZM47.3666 17.25C47.3666 15.4821 45.9202 14.0357 44.1523 14.0357H14.5809C12.813 14.0357 11.3666 15.4821 11.3666 17.25V39.1071C11.3666 40.875 12.813 42.3214 14.5809 42.3214H44.1523C45.9202 42.3214 47.3666 40.875 47.3666 39.1071V17.25Z" fill="white"/>
</svg>

<svg width="56" height="56" fill="none" xmlns="http://www.w3.org/2000/svg"><path d="M44.795 39.107a.661.661 0 01-.643.643H14.581a.661.661 0 01-.643-.643V23.68c.422.482.884.924 1.386 1.326 2.873 2.21 5.766 4.46 8.558 6.79 1.507 1.265 3.375 2.812 5.464 2.812h.04c2.09 0 3.958-1.547 5.465-2.812 2.792-2.33 5.685-4.58 8.558-6.79.502-.402.964-.844 1.386-1.326v15.428zm0-21.114c0 1.708-1.647 3.938-2.953 4.962a1287.32 1287.32 0 00-8.056 6.369c-1.065.863-2.993 2.712-4.4 2.712h-.04c-1.406 0-3.334-1.849-4.4-2.712-2.67-2.13-5.363-4.26-8.055-6.369-1.808-1.426-2.953-3.415-2.953-5.705 0-.341.301-.643.643-.643h29.571c.764 0 .643.884.643 1.386zm2.572-.743a3.224 3.224 0 00-3.215-3.214H14.581a3.224 3.224 0 00-3.214 3.214v21.857a3.224 3.224 0 003.214 3.214h29.571a3.224 3.224 0 003.215-3.214V17.25z" fill="#fff"/></svg>
